X:1
T: Bucks of Cranmore
C:Kerrs 4th Page 19
R:Reel
Q: 232
K:D
M:4/4
L:1/8
|:dB|A3/2D1/2 ((3FED) AD BD|A3/2D1/2 ((3FED) B3/2E1/2 ((3EDE) |A3/2D1/2 ((3FED) A2 ((3Bcd) |ef ge fd dB|
A3/2D1/2 ((3FED) AD BD|A3/2D1/2 ((3FED) B,E EB|A3/2D1/2 ((3FED) A2 ((3Bcd) |ef ge fd dc|
Ad fd ed fd|Ad fd ed Bd|Ad fd ed fg|ab ag fd dc|
Ad fd ed fd|Ad fd ed Bd|((3ABc) de fe fg|((3aba) ((3gag) fd d:|
